X: 19011
T: Interference
R: reel
M: 4/4
K: Eminor
|:G~E3 D~E3|G~E3 ABAF|G~E3 GABd|e2ge edBA|
G~E3 D~E3|G~E3 ABAF|G~E3 GABd|egdB ~A3A:|
|:e3d {A}B3A|GA{B}AG AGE2|e3d {A}B3A|GA{B}AG ~A3A|
e3d {A}B3A|G~A3 AGE2|G~E3 GABd|egdB GEE2:|

